**kern	**kern
*staff1	*staff2
*clefG2	*clefF4
*k[f#]	*k[f#]
*met(c|)	*met(c|)
*M2/2	*M2/2
=-	=-
([4g	2GG 2G
28gLL]	.
28a	.
28b	.
28cc	.
28dd	.
56eeL	.
56ff#	.
56gg	.
56JJJ	.
8bb)	4r
16.r	.
32g	.
(8.gL	4GG 4G
32f#LL	.
32gJJJ)	.
=170	=170
[4f#	2FF# 2F#
(60f#LLL]	.
60a	.
60g	.
60f#	.
60g	.
60a	.
60b	.
60cc#	.
60dd	.
60ee	.
60ff#	.
60gg	.
60aa	.
60bb	.
60ccc#JJJ	.
8ddd)	4r
16.r	.
32f#	.
(8.f#L	4FF# 4F#
32eLL	.
32f#JJJ)	.
=171	=171
(24gLL	4EE 4E
24e)	.
24b'J	.
(24aL	.
24g)	.
24ee'JJ	.
(24ddLL	4r
24cc#)	.
24gg'J	.
(24ff#L	.
24ee)	.
24bb'JJ	.
(24aaLL	2A 2e 2g
24gg)	.
24eee'J	.
(24dddL	.
24ccc#	.
24bbJJ	.
24aaLL	.
24gg#	.
24aaJ	.
24bb-L	.
24bb	.
24ccc#JJ)	.
=172	=172
(4.ccc#	([2d 2e 2g
16.eeeLL	.
32dddJJk)	.
8dd	8d]) 8f#
4d	8r
.	8D 8F#
[8d	8r
=173	=173
*	*^
32dLLL]	2E 2G	2r
32cn	.	.
32e	.	.
32dJJ	.	.
32fLL	.	.
32e	.	.
32g	.	.
32fJJJ	.	.
32aLLL	.	.
32g	.	.
32b	.	.
32aJJ	.	.
32ccLL	.	.
32b	.	.
32dd	.	.
32ccJJJ	.	.
32eeLLL	4A	2F#
32dd	.	.
32ff#	.	.
32eeJJ	.	.
32ggLL	.	.
32ff#	.	.
32aa	.	.
32ggJJJ	.	.
32bbLLL	4d	.
32aa	.	.
32ccc	.	.
32bbJJ	.	.
32dddLL	.	.
32ccc	.	.
32eee	.	.
32cccJJJ	.	.
*	*v	*v
=174	=174
*	*^
(24aa#LL	8d	8G
24bb)	.	.
24ddd'J	.	.
(24ff#L	8r	8r
24gg)	.	.
24bb'JJ	.	.
(24dd#LL	4r	4r
24ee)	.	.
24gg'J	.	.
(24bL	.	.
24cc)	.	.
24ee'JJ	.	.
(24g#LL	8e	8c
24a)	.	.
24eeJ	.	.
24dd#L	8r	8r
24dd	.	.
24cc#JJ	.	.
24ccLL	4r	4r
24b	.	.
24aJ	.	.
24bL	.	.
24cc	.	.
24cc#JJ	.	.
*	*v	*v
=175	=175
[4dd	[2D [2B
(16.ddLL]	.
32dd#Jk	.
24eeL	.
24cc	.
24aJJ)	.
8g	8D] 8B]
8r	8r
8f#	8D 8A
8r	8r
=176	=176
(2c [2d 2f# 2a	(4G
.	4D)
8B) 8d] 8g	8GG
8r	8r
4r	4r
=177	=177
*-	*-
